X: 32
T:South Wind, The
M:6/8
L:1/8
Q:100
R:Waltz
B:B
K:G
dc|"G"B3AG2|B3cd|"D"A6-|{B}A3dc2|"Em"B3AG2|"C"E3DE2|G6-|{A}"G"G2d2c2|
"G"B3AG2|B3cd|"D"A6-|{B}A2d2c2|"Em"B3AG2|"C"E3DE2|G6-|{A}"G"G4d2|
"G"g3agf|"C"g3fe2|"G"d6-|{e}"Em"d4c2|"G"B3AG2|B3cd2|"D"A6-|{B}A4d2|
"Em"g3agf|"C"g2f2e2|"G"d6-|{e}"Em"d4c2|"G"B3AG2|"D"AB3F2|"C"G6-|{A}"G"G4
|
